icons/svg/crypto/link.svg

<svg fill="none" height="32" viewBox="0 0 32 32" width="32" xmlns="http://www.w3.org/2000/svg"><path d="m16 32c8.8366 0 16-7.1634 16-16 0-8.83656-7.1634-16-16-16-8.83656 0-16 7.16344-16 16 0 8.8366 7.16344 16 16 16z" fill="#2a5ada"/><path d="m16 6-1.799 1.055-4.901 2.89-1.8 1.055v10l1.799 1.055 4.947 2.89 1.799 1.055 1.799-1.055 4.857-2.89 1.799-1.055v-10l-1.799-1.055-4.902-2.89zm-4.902 12.89v-5.78l4.902-2.89 4.902 2.89v5.78l-4.902 2.89z" fill="#fff"/></svg>

<svg fill="none" height="32" width="32" xmlns="http://www.w3.org/2000/svg">
    <path d="M16 32c8.837 0 16-7.163 16-16S24.837 0 16 0 0 7.163 0 16s7.163 16 16 16Z"
        fill="#2A5ADA" />
    <path d="m16 6-1.799 1.055L9.3 9.945 7.5 11v10l1.799 1.055 4.947 2.89L16.045 26l1.799-1.055 4.857-2.89L24.5 21V11l-1.799-1.055-4.902-2.89L16 6Zm-4.902 12.89v-5.78L16 10.22l4.902 2.89v5.78L16 21.78l-4.902-2.89Z"
        fill="#fff" />
</svg>
